X:1
T:Plumer, CMD
T:Plumer, CMD
T:Joseph Maclean, 1899
T:Public Domain Courtesy of the Cyber Hymnal™
C:Joseph Maclean, 1899
Z:Public Domain
Z:Courtesy of the Cyber Hymnal™
%%score ( 1 2 ) ( 3 4 )
L:1/8
Q:1/4=113
M:4/4
K:C
V:1 treble 
V:2 treble 
V:3 bass 
V:4 bass 
V:1
 [EG]2 | [Ec]2 [CG]2 [CA]2 [CG]2 | [CF]2 [B,F]2 [CE]2 [B,D]2 | [CE]2 [CG]2 [CA]2 [Dc]2 | [DB]6 G2 | %5
 [Ec]2 [CG]2 [CA]2 [CG]2 | [CF]2 [B,F]2 [CE]2 [D^F]2 | [DG]2 [EA]2 [DB]2 [CA]2 | [B,G]6 G2 | %9
 [Fd]2 [FB]2 [FA]2 [FG]2 | [EG]2 [Ec]2 [Fc]2 G2 | [GA]2 [EA]2 [^FB]2 [Fc]2 | [Fd]6 [FG]2 | %13
 [Ee]3 [Ge] [Gd]2 [Gc]2 | [Fc]2 [Ff]2 [Ae]2 [Ad]2 | [Gc]2 [^Fc]2 [=Fc]2 [FB]2 | [Ec]6 |] %17
V:2
 x2 | x8 | x8 | x8 | x6 G2 | x8 | x8 | x8 | x6 G2 | x8 | x6 G2 | x8 | x8 | x8 | x8 | x8 | x6 |] %17
V:3
 [C,C]2 | [C,G,]2 [E,G,]2 F,2 [E,G,]2 | [D,A,]2 [G,,G,]2 [C,G,]2 [G,,G,]2 | %3
 [C,G,]2 [E,G,]2 F,2 [D,^F,]2 | G,6 G,2 | [C,G,]2 [E,G,]2 F,2 [E,G,]2 | %6
 [D,A,]2 G,2 [C,G,]2 [C,A,]2 | [B,,G,]2 [C,G,]2 [D,G,]2 [D,^F,]2 | G,6 [G,B,]2 | %9
 [G,B,]2 [G,D]2 [A,D]2 [B,D]2 | C2 [C,C]2 [D,G,]2 [E,C]2 | [F,C]2 [E,^C]2 [D,=C]2 [D,C]2 | %12
 [G,B,]6 [G,B,]2 | [C,C]3 [C,C] [D,B,]2 [E,_B,]2 | [F,A,]2 [D,D]2 [E,^C]2 [F,D]2 | %15
 [G,E]2 [G,_E]2 [G,,D]2 [G,,D]2 | [C,C]6 |] %17
V:4
 x2 | x4 F,2 x2 | x8 | x4 ^F,2 x2 | G,6 G,2 | x4 F,2 x2 | x2 G,2 x4 | x8 | G,6 x2 | x8 | C2 x6 | %11
 x8 | x8 | x8 | x8 | x8 | x6 |] %17

